icon-themes/sifr_svg/cmd/sc_backgroundpatterncontroller.svg

<svg viewBox="0 0 16 16" xmlns="http://www.w3.org/2000/svg"><path d="m10.99996 1v6a1 1 0 0 1 -.9999997 1 1 1 0 0 1 -1-1v-6zm-2.9999997 1.3671875v4.6328125c0 1.0927249.9072751 2 2 2 1.0927247 0 1.9999997-.9072751 1.9999997-2v-1.3320312l2.804688 3.7636718c.323181.43388.241038 1.0520134-.185547 1.3847654l-4.8183595 3.976563c-.4265853.332752-1.0303327.25224-1.3535156-.181641l-5.2500005-7.048828c-.126016-.1691801-.173675-.3654964-.179687-.5625h-.017578l.00195 3c.000368.554-.446 1-1 1s-.999632-.446-1-1l-.00195-3c-.000494-.7434953.233705-1.06966 1-1.4355469l4.4121092-1.8867187zm-4.6152349 3.8125c-.090246.070396-.156496.1565994-.21289.2480469.058774-.090557.123312-.1781727.21289-.2480469zm-.271484.3476563c-.023291.050506-.038194.1027297-.052734.15625.015834-.052625.028283-.106571.052734-.15625z" fill="#555753"/></svg>

<svg xmlns="http://www.w3.org/2000/svg" viewBox="0 0 16 16">
  <path
     style="opacity:1;fill:#555753"
     d="m 10.99996,1 v 6 a 1,1 0 0 1 -0.9999997,1 1,1 0 0 1 -1,-1 V 1 Z M 7.9999603,2.3671875 V 7 c 0,1.0927249 0.9072751,2 2,2 C 11.092685,9 11.99996,8.0927249 11.99996,7 V 5.6679688 l 2.804688,3.7636718 c 0.323181,0.43388 0.241038,1.0520134 -0.185547,1.3847654 L 9.8007415,14.792969 C 9.3741562,15.125721 8.7704088,15.045209 8.4472259,14.611328 L 3.1972254,7.5625 C 3.0712094,7.3933199 3.0235504,7.1970036 3.0175384,7 h -0.017578 l 0.00195,3 c 3.68e-4,0.554 -0.446,1 -1,1 -0.554,0 -0.999632,-0.446 -1,-1 L 0.9999604,7 c -4.94e-4,-0.7434953 0.233705,-1.06966 1,-1.4355469 L 6.4120696,3.6777344 Z m -4.6152349,3.8125 c -0.090246,0.070396 -0.156496,0.1565994 -0.21289,0.2480469 0.058774,-0.090557 0.123312,-0.1781727 0.21289,-0.2480469 z m -0.271484,0.3476563 c -0.023291,0.050506 -0.038194,0.1027297 -0.052734,0.15625 0.015834,-0.052625 0.028283,-0.106571 0.052734,-0.15625 z"
     />
</svg>
